X: 09002
T: AMY RICHARDSON'S
C: Bob McQuillen 26 Feb 92
B: Bob's Note Book 9 #2
R: reel
Z: 2018 John Chambers <jc:trillian.mit.edu>
M: C
L: 1/8
K: Am
cB \
| A2AG EGAG | cAce dcAG | A2AG EGAc | egag ecdc |
| A2AG EGAG | cAce dcAc | eceg agec | dced cA :|
|: cd \
| e2ed cdeg | agec dcAc | e2ed cdeg | aged e2eg |
| a2ag edcd | ecdc A2EG | Aceg aged | cAAG A2 :|
%%begintext align
%% Amy came
%% up from East Sandwich, MA in January and
%% played her fiddle at the Peterborough Dance
%% (1st Saturdays). We had such a good time playing together
%% I thought she should have a tune of her own. I wure do
%% hope you like it, Amy!
%%endtext

%%sep 1 1 500

%%sep 1 1 500

